svg/solid/bxs-movie-play.svg

<svg xmlns="http://www.w3.org/2000/svg" width="24" height="24"><path d="M20 3H4c-1.103 0-2 .897-2 2v14c0 1.103.897 2 2 2h16c1.103 0 2-.897 2-2V5c0-1.103-.897-2-2-2zm.001 6c-.001 0-.001 0 0 0h-.465l-2.667-4H20l.001 4zM15.5 15 10 18v-6l5.5 3zm-.964-6-2.667-4h2.596l2.667 4h-2.596zm-2.404 0H9.536L6.869 5h2.596l2.667 4zM4 5h.465l2.667 4H4V5z"/></svg>

<svg xmlns="http://www.w3.org/2000/svg" width="24" height="24" viewBox="0 0 24 24"><path d="M20,3H4C2.897,3,2,3.897,2,5v6v8c0,1.103,0.897,2,2,2h16c1.103,0,2-0.897,2-2v-8V5C22,3.897,21.103,3,20,3z M20.001,9 C20,9,20,9,20.001,9h-0.465l-2.667-4H20L20.001,9z M15.5,15L10,18v-6L15.5,15z M14.536,9l-2.667-4h2.596l2.667,4H14.536z M12.132,9 H9.536L6.869,5h2.596L12.132,9z M4,5h0.465l2.667,4H4V5z"/></svg>
